**kern	**kern	**dynam
*part1	*part1	*part1
*staff2	*staff1	*
*I"Piano	*	*
*clefF4	*clefG2	*
*k[]	*k[]	*
=1	=1	=1
4r	2c 2e 2cc	.
4GG	.	.
4E 4G	[4c 4e	>
=	=	=
*	*^	*
4r	2d	4c]	.
4GGG 4GG	.	4B	.
4D 4G	4f	4d	.
*	*v	*v	*
=	=	=
(8CCL	2c 2e	]
8C	.	.
8E	.	.
8GJ)	.	.
4r	(4c 4e 4cc	<
=	=	=
(8CCL	2c 2g 2b 2cc	[ mp >
8C	.	.
8F	.	.
8AJ)	.	.
4r	4c 4f 4a 4cc	] p
=	=	=
(8CCL	2c) 2e 2g 2cc	.
8C	.	.
8E	.	.
8GJ)	.	.
!	!LO:TX:b:i:t=all -	!
4r	4g 4cc 4ee	.
=	=	=
!	!LO:TX:b:i:t=mählig lebhafter	!
(8DDL	2f#X 2b 2dd	.
8D	.	.
8F#X	.	.
8AJ)	.	.
4r	4f# 4a 4cc	.
=	=	=
(8GGL	2g 2b	.
8D	.	.
8G	.	.
8BJ)	.	.
4r	4g 4b 4ee	.
=	=	=
*-	*-	*-
!!!system-decoration: {(s1,s2)}
